X: 97
M:4/4
L:1/8
K:D
d2 fd efge|d2 fd "tr"g2 fe|d2 fd efgf|eaaf gfec|
d2 fd efge|d2 fd g2 ga|bgaf gfed|(3Bcd ef gfed||

